X: 06069
T: NISKAYUNA
C: Bob McQuillen 11 June 82
B: Bob's Note Book 6 #69
%R: waltz
Z: 2021 John Chambers <jc:trillian.mit.edu>
M: 3/4
L: 1/8
K: D	% and Bm
fg \
| a2 f2 fa | gf e4 | f2 dB df | ec A4 || B2 GA Bc | d2 a2 de | f2 a2 gf | f2 e4 |
| ag fd fa | gf e4 | fe dB df | ec A4 || BA GA Bc | dA de fg | fe d2 c2 | d4 ||
K: Bm
|| dc \
| B2 F2 Bd | c2 f2 dc | B2 FA Bd | BA F2 dc || B2 F2 Bd | ce fg fe | d2 B2 BA | BA Bc de |
| fa fe df | ed e4    | de dc Bd | cA F4    || B2 B2 cd | ed ef dB | F2 B2 BA | B4 |]
%%begintext align
%% Niskayuna High School, on
%% the Balltown Rd. in Schenectady, N.Y., gave its name to a
%% real nice folk festival that used to be a yearly event there.
%% George & Vaughan Ward were the spark plugs who ran the festival,
%% and I just want to thank them for all their time and hard work.
%% (Forbes & Comer made their debut there. Great duo.)
%%endtext

%%sep 1 1 500

%%sep 1 1 500

